frontend/dist/assets/icons/boreg.svg

<svg width="172" height="60" viewBox="0 0 172 60" fill="none" xmlns="http://www.w3.org/2000/svg">
<path d="M88.976 34.516C90.608 34.78 91.856 35.32 92.72 36.136C93.584 36.928 94.016 37.852 94.016 38.908C94.016 40.084 93.464 41.236 92.36 42.364C91.28 43.492 89.78 44.416 87.86 45.136C85.964 45.832 83.876 46.18 81.596 46.18C80.9 46.18 80.096 45.904 79.184 45.352C78.296 44.8 77.528 44.164 76.88 43.444C76.256 42.7 75.944 42.076 75.944 41.572C75.944 41.116 76.46 38.476 77.492 33.652C78.26 30.052 78.764 27.568 79.004 26.2L77.744 26.38C76.952 25.54 76.556 24.592 76.556 23.536C76.556 22.768 76.772 22.036 77.204 21.34C79.292 20.86 81.056 20.62 82.496 20.62C84.68 20.62 86.708 20.968 88.58 21.664C90.452 22.36 91.94 23.284 93.044 24.436C94.148 25.588 94.7 26.824 94.7 28.144C94.7 29.464 94.196 30.712 93.188 31.888C92.204 33.04 90.8 33.916 88.976 34.516ZM83.108 32.788C85.172 32.5 86.744 31.984 87.824 31.24C88.928 30.472 89.48 29.584 89.48 28.576C89.48 27.88 89.096 27.292 88.328 26.812C87.584 26.308 86.6 26.056 85.376 26.056C84.872 26.056 84.476 26.08 84.188 26.128C84.02 27.208 83.9 27.952 83.828 28.36C83.588 30.064 83.348 31.54 83.108 32.788ZM81.272 41.824C83.456 41.68 85.088 41.272 86.168 40.6C87.272 39.928 87.824 39.1 87.824 38.116C87.824 37.564 87.608 37.096 87.176 36.712C86.768 36.328 86.132 36.088 85.268 35.992C84.524 35.944 83.72 35.992 82.856 36.136L82.64 36.928C82.016 39.04 81.56 40.672 81.272 41.824ZM104.574 25.66C106.278 25.852 107.826 26.368 109.218 27.208C110.634 28.024 111.738 29.008 112.53 30.16C113.322 31.312 113.718 32.464 113.718 33.616C113.718 35.344 113.274 37.18 112.386 39.124C111.498 41.068 110.262 42.7 108.678 44.02C107.094 45.34 105.33 46 103.386 46C102.426 46 101.406 45.652 100.326 44.956C99.2461 44.236 98.3341 43.372 97.5901 42.364C96.8701 41.332 96.5101 40.42 96.5101 39.628C96.5101 38.164 96.6901 36.664 97.0501 35.128C97.4101 33.568 97.9621 32.056 98.7061 30.592C99.4021 30.208 100.098 30.016 100.794 30.016C101.106 30.016 101.394 30.052 101.658 30.124C101.562 29.836 101.514 29.5 101.514 29.116C101.514 28.348 101.778 27.652 102.306 27.028C102.858 26.404 103.614 25.948 104.574 25.66ZM102.09 41.896C104.082 41.224 105.63 40.072 106.734 38.44C107.838 36.808 108.57 34.864 108.93 32.608C107.85 31.84 106.386 31.456 104.538 31.456C104.082 31.456 103.734 31.468 103.494 31.492C103.758 31.972 103.89 32.512 103.89 33.112C103.266 34.096 102.786 35.188 102.45 36.388C102.114 37.564 101.946 38.752 101.946 39.952C101.946 40.672 101.994 41.32 102.09 41.896ZM120.873 46C120.225 46 119.517 45.796 118.749 45.388C117.981 44.956 117.321 44.464 116.769 43.912C116.217 43.336 115.941 42.856 115.941 42.472C115.941 42.016 116.037 41.428 116.229 40.708C116.421 39.964 116.709 39.004 117.093 37.828C117.477 36.604 117.765 35.632 117.957 34.912C118.149 34.168 118.245 33.568 118.245 33.112C118.245 32.92 118.137 32.716 117.921 32.5C117.705 32.284 117.369 31.996 116.913 31.636C116.385 31.204 116.001 30.868 115.761 30.628C115.521 30.388 115.401 30.148 115.401 29.908C115.401 29.404 115.641 28.816 116.121 28.144C116.601 27.472 117.165 26.896 117.813 26.416C118.461 25.936 119.013 25.696 119.469 25.696C119.973 25.696 120.549 25.924 121.197 26.38C121.845 26.836 122.409 27.364 122.889 27.964C123.369 28.54 123.609 28.984 123.609 29.296C123.609 30.208 123.429 31.408 123.069 32.896L123.501 33.112C124.053 32.224 124.653 31.168 125.301 29.944C125.973 28.696 126.381 27.928 126.525 27.64L127.209 26.344C128.865 26.296 130.101 26.596 130.917 27.244C131.733 27.892 132.141 28.756 132.141 29.836C132.141 30.892 131.793 31.948 131.097 33.004C129.369 33.58 127.893 34.156 126.669 34.732C125.469 35.284 124.257 35.944 123.033 36.712C122.961 39.376 122.745 41.596 122.385 43.372C122.049 45.124 121.545 46 120.873 46ZM140.536 46C139.384 46 138.184 45.628 136.936 44.884C135.688 44.116 134.656 43.18 133.84 42.076C133.024 40.972 132.616 39.928 132.616 38.944C132.616 37.192 133.024 35.272 133.84 33.184C134.68 31.096 135.832 29.332 137.296 27.892C138.76 26.428 140.416 25.696 142.264 25.696C143.584 25.696 144.772 25.984 145.828 26.56C146.908 27.136 147.748 27.856 148.348 28.72C148.948 29.584 149.248 30.424 149.248 31.24C149.248 32.248 148.792 33.244 147.88 34.228C146.968 35.188 145.696 36.04 144.064 36.784C142.432 37.504 140.572 38.02 138.484 38.332C138.46 38.62 138.448 39.052 138.448 39.628C138.448 40.348 138.472 40.888 138.52 41.248C139.72 41.128 140.908 40.804 142.084 40.276C143.26 39.748 144.544 39.004 145.936 38.044C146.872 38.332 147.58 38.788 148.06 39.412C148.54 40.036 148.78 40.78 148.78 41.644C148.78 42.364 148.336 43.072 147.448 43.768C146.584 44.44 145.504 44.98 144.208 45.388C142.912 45.796 141.688 46 140.536 46ZM139.024 35.632C140.488 35.104 141.712 34.432 142.696 33.616C143.68 32.8 144.172 32.104 144.172 31.528C144.172 30.856 143.704 30.4 142.768 30.16C141.856 30.832 141.076 31.636 140.428 32.572C139.804 33.508 139.336 34.528 139.024 35.632ZM163.488 40.312C162.024 41.464 160.548 42.46 159.06 43.3C157.596 44.14 156.384 44.56 155.424 44.56C154.872 44.56 154.26 44.356 153.588 43.948C152.94 43.516 152.388 43 151.932 42.4C151.476 41.776 151.248 41.2 151.248 40.672C151.248 38.68 151.644 36.508 152.436 34.156C153.252 31.78 154.344 29.776 155.712 28.144C157.104 26.512 158.628 25.696 160.284 25.696C160.932 25.696 161.568 25.996 162.192 26.596C162.816 27.172 163.308 27.82 163.668 28.54C163.764 27.964 163.92 27.508 164.136 27.172C164.376 26.836 164.616 26.668 164.856 26.668C165.216 26.668 165.768 26.908 166.512 27.388C167.256 27.844 167.928 28.36 168.528 28.936C169.128 29.512 169.428 29.944 169.428 30.232C169.428 31.144 169.068 33.58 168.348 37.54C167.652 41.5 166.884 45.352 166.044 49.096C165.228 52.84 164.64 55.012 164.28 55.612C163.728 56.476 162.864 57.232 161.688 57.88C160.536 58.528 159.408 58.852 158.304 58.852C157.272 58.852 156.228 58.54 155.172 57.916C154.116 57.292 153.252 56.524 152.58 55.612C151.908 54.7 151.572 53.872 151.572 53.128C151.572 52.264 152.076 51.256 153.084 50.104C154.116 48.952 155.364 47.8 156.828 46.648C158.292 45.52 160.164 44.152 162.444 42.544C162.852 42.232 163.464 41.788 164.28 41.212L163.488 40.312ZM161.544 30.268C160.704 30.268 159.912 30.808 159.168 31.888C158.448 32.944 157.836 34.276 157.332 35.884C156.828 37.468 156.492 39.028 156.324 40.564C158.58 39.628 160.38 38.32 161.724 36.64C163.068 34.96 163.8 33.232 163.92 31.456C163.632 31.144 163.26 30.868 162.804 30.628C162.372 30.388 161.952 30.268 161.544 30.268ZM163.056 46.108C158.976 49.3 156.936 51.58 156.936 52.948C156.936 53.428 157.14 53.836 157.548 54.172C157.98 54.532 158.52 54.82 159.168 55.036C159.888 54.196 160.548 53.056 161.148 51.616C161.748 50.176 162.384 48.34 163.056 46.108Z" fill="black"/>
<g clip-path="url(#clip0)">
<path d="M59.5029 12.2094C59.0221 11.4024 58.2558 10.8313 57.3467 10.6014L35.3118 5.01291C34.4014 4.78147 33.4556 4.91893 32.6484 5.39939C31.8417 5.87973 31.2702 6.6453 31.0389 7.55595L29.8617 12.1973L22.4969 4.48651C21.8485 3.80754 20.9745 3.42165 20.0361 3.39997C19.0976 3.37677 18.2065 3.72352 17.5273 4.37214L1.0876 20.075C0.408626 20.7233 0.0227354 21.5975 0.00105611 22.5364C-0.0207403 23.4754 0.324605 24.3665 0.973225 25.0457L15.1169 39.8534V53.0856C15.1169 55.024 16.694 56.6011 18.6325 56.6011H41.3664C43.3049 56.6011 44.8819 55.024 44.8819 53.0856V51.6874L46.8033 52.1748C47.0922 52.2482 47.3844 52.2845 47.6749 52.2845C48.2999 52.2845 48.9157 52.1163 49.4667 51.7884C50.2734 51.3081 50.845 50.5425 51.0764 49.6319L59.8913 14.8711C60.1214 13.9611 59.9836 13.0157 59.5029 12.2094V12.2094ZM15.1169 17.227V34.7637L3.51556 22.6172L19.9547 6.91471L26.4465 13.7115H18.6325C16.694 13.7115 15.1169 15.2885 15.1169 17.227V17.227ZM41.3664 53.0857H18.6325V17.227H41.3664L41.3684 49.3431C41.3658 49.3965 41.3662 49.4494 41.3684 49.502L41.3686 53.0854C41.3686 53.0856 41.3679 53.0857 41.3664 53.0857ZM47.6684 48.7674L44.8819 48.0608V17.227C44.8819 15.2885 43.3049 13.7115 41.3664 13.7115H33.1048L34.4468 8.42054L56.4833 14.0082L47.6684 48.7674Z" fill="black"/>
<path d="M36.4479 38.3079C37.7631 37.0659 38.3956 35.1878 38.1403 33.2839C37.8975 31.473 36.8661 29.9189 35.3799 29.1259C34.6599 28.7426 33.8981 28.5482 33.1155 28.5482C31.9282 28.5482 30.8429 29.0005 29.9994 29.7584C29.1559 29.0005 28.0707 28.5482 26.8833 28.5482C26.1007 28.5482 25.3388 28.7425 24.6176 29.1266C23.1327 29.919 22.1014 31.473 21.8586 33.284C21.6032 35.1879 22.2359 37.066 23.5509 38.308C23.5625 38.3189 23.574 38.3295 23.5859 38.34L28.8274 43.0288C29.1612 43.3273 29.5802 43.4764 29.9994 43.4764C30.4186 43.4764 30.8376 43.3273 31.1714 43.0288L36.413 38.34C36.4248 38.3294 36.4363 38.3188 36.4479 38.3079V38.3079ZM34.0483 35.7383L29.9994 39.3602L25.9505 35.7383C25.4728 35.2769 25.2401 34.5175 25.3428 33.7511C25.4358 33.0587 25.7832 32.4894 26.2712 32.2291C26.4771 32.1194 26.6831 32.0639 26.8833 32.0639C27.5181 32.0639 28.2102 32.6641 28.2423 33.7766C28.2698 34.7271 29.0485 35.4836 29.9994 35.4836C30.9504 35.4836 31.7291 34.7271 31.7565 33.7766C31.7885 32.6641 32.4807 32.0639 33.1155 32.0639C33.3158 32.0639 33.5218 32.1195 33.7263 32.2284C34.2156 32.4895 34.5631 33.0587 34.656 33.7511C34.7588 34.5175 34.526 35.2767 34.0483 35.7383Z" fill="black"/>
<path d="M23.4371 23.7895C24.4079 23.7895 25.1949 23.0025 25.1949 22.0317C25.1949 21.0609 24.4079 20.2739 23.4371 20.2739C22.4663 20.2739 21.6793 21.0609 21.6793 22.0317C21.6793 23.0025 22.4663 23.7895 23.4371 23.7895Z" fill="black"/>
<path d="M36.5618 50.0385C37.5326 50.0385 38.3196 49.2515 38.3196 48.2807C38.3196 47.3099 37.5326 46.5229 36.5618 46.5229C35.591 46.5229 34.804 47.3099 34.804 48.2807C34.804 49.2515 35.591 50.0385 36.5618 50.0385Z" fill="black"/>
</g>
<defs>
<clipPath id="clip0">
<rect width="60" height="60" fill="white"/>
</clipPath>
</defs>
</svg>

<svg width="172" height="60" fill="none" xmlns="http://www.w3.org/2000/svg"><path d="M88.976 34.516c1.632.264 2.88.804 3.744 1.62.864.792 1.296 1.716 1.296 2.772 0 1.176-.552 2.328-1.656 3.456-1.08 1.128-2.58 2.052-4.5 2.772-1.896.696-3.984 1.044-6.264 1.044-.696 0-1.5-.276-2.412-.828a10.61 10.61 0 01-2.304-1.908c-.624-.744-.936-1.368-.936-1.872 0-.456.516-3.096 1.548-7.92.768-3.6 1.272-6.084 1.512-7.452l-1.26.18c-.792-.84-1.188-1.788-1.188-2.844 0-.768.216-1.5.648-2.196 2.088-.48 3.852-.72 5.292-.72 2.184 0 4.212.348 6.084 1.044 1.872.696 3.36 1.62 4.464 2.772 1.104 1.152 1.656 2.388 1.656 3.708 0 1.32-.504 2.568-1.512 3.744-.984 1.152-2.388 2.028-4.212 2.628zm-5.868-1.728c2.064-.288 3.636-.804 4.716-1.548 1.104-.768 1.656-1.656 1.656-2.664 0-.696-.384-1.284-1.152-1.764-.744-.504-1.728-.756-2.952-.756-.504 0-.9.024-1.188.072-.168 1.08-.288 1.824-.36 2.232a91.16 91.16 0 01-.72 4.428zm-1.836 9.036c2.184-.144 3.816-.552 4.896-1.224 1.104-.672 1.656-1.5 1.656-2.484 0-.552-.216-1.02-.648-1.404-.408-.384-1.044-.624-1.908-.72-.744-.048-1.548 0-2.412.144l-.216.792c-.624 2.112-1.08 3.744-1.368 4.896zm23.302-16.164c1.704.192 3.252.708 4.644 1.548 1.416.816 2.52 1.8 3.312 2.952.792 1.152 1.188 2.304 1.188 3.456 0 1.728-.444 3.564-1.332 5.508-.888 1.944-2.124 3.576-3.708 4.896-1.584 1.32-3.348 1.98-5.292 1.98-.96 0-1.98-.348-3.06-1.044a10.84 10.84 0 01-2.736-2.592c-.72-1.032-1.08-1.944-1.08-2.736 0-1.464.18-2.964.54-4.5.36-1.56.912-3.072 1.656-4.536.696-.384 1.392-.576 2.088-.576.312 0 .6.036.864.108a3.191 3.191 0 01-.144-1.008c0-.768.264-1.464.792-2.088.552-.624 1.308-1.08 2.268-1.368zm-2.484 16.236c1.992-.672 3.54-1.824 4.644-3.456s1.836-3.576 2.196-5.832c-1.08-.768-2.544-1.152-4.392-1.152-.456 0-.804.012-1.044.036.264.48.396 1.02.396 1.62a12.238 12.238 0 00-1.44 3.276 12.914 12.914 0 00-.504 3.564c0 .72.048 1.368.144 1.944zM120.873 46c-.648 0-1.356-.204-2.124-.612a9.057 9.057 0 01-1.98-1.476c-.552-.576-.828-1.056-.828-1.44 0-.456.096-1.044.288-1.764.192-.744.48-1.704.864-2.88a74.05 74.05 0 00.864-2.916c.192-.744.288-1.344.288-1.8 0-.192-.108-.396-.324-.612a12.243 12.243 0 00-1.008-.864 16.817 16.817 0 01-1.152-1.008c-.24-.24-.36-.48-.36-.72 0-.504.24-1.092.72-1.764a7.712 7.712 0 011.692-1.728c.648-.48 1.2-.72 1.656-.72.504 0 1.08.228 1.728.684a8.182 8.182 0 011.692 1.584c.48.576.72 1.02.72 1.332 0 .912-.18 2.112-.54 3.6l.432.216a53.382 53.382 0 001.8-3.168c.672-1.248 1.08-2.016 1.224-2.304l.684-1.296c1.656-.048 2.892.252 3.708.9.816.648 1.224 1.512 1.224 2.592 0 1.056-.348 2.112-1.044 3.168-1.728.576-3.204 1.152-4.428 1.728a32.077 32.077 0 00-3.636 1.98c-.072 2.664-.288 4.884-.648 6.66-.336 1.752-.84 2.628-1.512 2.628zm19.663 0c-1.152 0-2.352-.372-3.6-1.116-1.248-.768-2.28-1.704-3.096-2.808-.816-1.104-1.224-2.148-1.224-3.132 0-1.752.408-3.672 1.224-5.76.84-2.088 1.992-3.852 3.456-5.292 1.464-1.464 3.12-2.196 4.968-2.196 1.32 0 2.508.288 3.564.864 1.08.576 1.92 1.296 2.52 2.16.6.864.9 1.704.9 2.52 0 1.008-.456 2.004-1.368 2.988-.912.96-2.184 1.812-3.816 2.556-1.632.72-3.492 1.236-5.58 1.548-.024.288-.036.72-.036 1.296 0 .72.024 1.26.072 1.62 1.2-.12 2.388-.444 3.564-.972 1.176-.528 2.46-1.272 3.852-2.232.936.288 1.644.744 2.124 1.368.48.624.72 1.368.72 2.232 0 .72-.444 1.428-1.332 2.124-.864.672-1.944 1.212-3.24 1.62-1.296.408-2.52.612-3.672.612zm-1.512-10.368c1.464-.528 2.688-1.2 3.672-2.016.984-.816 1.476-1.512 1.476-2.088 0-.672-.468-1.128-1.404-1.368a10.154 10.154 0 00-2.34 2.412 10.75 10.75 0 00-1.404 3.06zm24.464 4.68a34.998 34.998 0 01-4.428 2.988c-1.464.84-2.676 1.26-3.636 1.26-.552 0-1.164-.204-1.836-.612a6.795 6.795 0 01-1.656-1.548c-.456-.624-.684-1.2-.684-1.728 0-1.992.396-4.164 1.188-6.516.816-2.376 1.908-4.38 3.276-6.012 1.392-1.632 2.916-2.448 4.572-2.448.648 0 1.284.3 1.908.9a6.733 6.733 0 011.476 1.944c.096-.576.252-1.032.468-1.368.24-.336.48-.504.72-.504.36 0 .912.24 1.656.72.744.456 1.416.972 2.016 1.548.6.576.9 1.008.9 1.296 0 .912-.36 3.348-1.08 7.308a252.287 252.287 0 01-2.304 11.556c-.816 3.744-1.404 5.916-1.764 6.516-.552.864-1.416 1.62-2.592 2.268-1.152.648-2.28.972-3.384.972-1.032 0-2.076-.312-3.132-.936-1.056-.624-1.92-1.392-2.592-2.304-.672-.912-1.008-1.74-1.008-2.484 0-.864.504-1.872 1.512-3.024 1.032-1.152 2.28-2.304 3.744-3.456 1.464-1.128 3.336-2.496 5.616-4.104.408-.312 1.02-.756 1.836-1.332l-.792-.9zm-1.944-10.044c-.84 0-1.632.54-2.376 1.62-.72 1.056-1.332 2.388-1.836 3.996a24.048 24.048 0 00-1.008 4.68c2.256-.936 4.056-2.244 5.4-3.924 1.344-1.68 2.076-3.408 2.196-5.184a4.096 4.096 0 00-1.116-.828c-.432-.24-.852-.36-1.26-.36zm1.512 15.84c-4.08 3.192-6.12 5.472-6.12 6.84 0 .48.204.888.612 1.224.432.36.972.648 1.62.864.72-.84 1.38-1.98 1.98-3.42.6-1.44 1.236-3.276 1.908-5.508z" fill="#000"/><g clip-path="url(#clip0)" fill="#000"><path d="M59.503 12.21a3.49 3.49 0 00-2.156-1.609L35.312 5.013a3.491 3.491 0 00-2.664.386 3.494 3.494 0 00-1.61 2.157l-1.176 4.641-7.365-7.71a3.492 3.492 0 00-2.46-1.087 3.486 3.486 0 00-2.51.972L1.087 20.075a3.492 3.492 0 00-1.086 2.461c-.022.94.324 1.83.972 2.51l14.144 14.807v13.233a3.52 3.52 0 003.515 3.515h22.734a3.52 3.52 0 003.516-3.515v-1.399l1.921.488a3.495 3.495 0 002.663-.386 3.495 3.495 0 001.61-2.157l8.815-34.76c.23-.91.093-1.856-.388-2.663zm-44.386 5.017v17.537L3.516 22.617 19.955 6.915l6.492 6.796h-7.814a3.52 3.52 0 00-3.516 3.516zm26.25 35.859H18.632V17.227h22.733l.002 32.116a1.754 1.754 0 000 .159v3.583h-.002zm6.301-4.319l-2.786-.706V17.227a3.52 3.52 0 00-3.516-3.516h-8.261l1.342-5.29 22.036 5.587-8.815 34.76z"/><path d="M36.448 38.308c1.315-1.242 1.948-3.12 1.692-5.024-.242-1.811-1.274-3.365-2.76-4.158a4.777 4.777 0 00-2.265-.578A4.638 4.638 0 0030 29.758a4.638 4.638 0 00-3.116-1.21c-.782 0-1.544.195-2.265.579-1.485.792-2.517 2.346-2.76 4.157-.255 1.904.378 3.782 1.693 5.024l.035.032 5.241 4.689a1.754 1.754 0 002.344 0l5.242-4.689.035-.032zm-2.4-2.57L30 39.36l-4.048-3.622c-.478-.461-.71-1.22-.608-1.987.093-.692.44-1.262.928-1.522a1.3 1.3 0 01.612-.165c.635 0 1.327.6 1.36 1.713a1.758 1.758 0 003.514 0c.031-1.113.724-1.713 1.358-1.713.2 0 .407.056.611.164.49.261.837.83.93 1.523.103.767-.13 1.526-.608 1.987zM23.437 23.79a1.758 1.758 0 100-3.516 1.758 1.758 0 000 3.515zM36.562 50.038a1.758 1.758 0 100-3.515 1.758 1.758 0 000 3.515z"/></g><defs><clipPath id="clip0"><path fill="#fff" d="M0 0h60v60H0z"/></clipPath></defs></svg>
